public/signs/germany/222-10_vorbeifahrt-links.svg

<svg xmlns="http://www.w3.org/2000/svg" xml:space="preserve" width="602.3" height="602.3"><path d="M70.793 410.777C39.516 379.5 20.043 345.781 8.59 303.051c-11.453-42.77-11.453-81.715 0-124.484 11.449-42.731 30.941-76.469 62.238-107.766 31.277-31.277 65-50.754 107.75-62.223 42.746-11.433 81.715-11.449 124.461.02 42.734 11.453 76.453 30.926 107.731 62.203 31.296 31.297 50.789 65.035 62.257 107.785 11.453 42.731 11.453 81.715 0 124.445-11.468 42.746-30.941 76.469-62.222 107.746-31.293 31.297-65.035 50.79-107.762 62.243-42.75 11.468-81.719 11.453-124.469.019-42.746-11.472-76.484-30.961-107.781-62.262Zm.281-.281c31.254 31.254 64.914 50.703 107.606 62.156 42.691 11.418 81.57 11.438 124.258-.019 42.675-11.438 76.332-30.883 107.585-62.137 31.235-31.238 50.668-64.879 62.122-107.566 11.433-42.672 11.433-81.567-.004-124.238C461.188 136 441.738 102.34 410.484 71.086 379.25 39.852 345.605 20.422 302.938 8.985c-42.692-11.454-81.567-11.434-124.258-.02-42.692 11.453-76.332 30.883-107.571 62.117-31.254 31.254-50.699 64.914-62.132 107.59-11.438 42.707-11.438 81.566 0 124.273 11.429 42.672 30.863 76.317 62.097 107.551z" style="fill:#000;fill-opacity:1;fill-rule:evenodd;stroke:none" transform="matrix(1.25 0 0 -1.25 0 602.3)"/><path d="M410.523 410.496c-31.253 31.254-64.91 50.699-107.585 62.137-42.688 11.457-81.567 11.437-124.258.019-42.692-11.457-76.352-30.902-107.606-62.156-31.238-31.234-50.668-64.879-62.097-107.551-11.438-42.707-11.438-81.57-.004-124.277 11.437-42.672 30.882-76.332 62.136-107.586 31.239-31.234 64.879-50.664 107.567-62.117 42.691-11.418 81.57-11.434 124.262.02 42.667 11.437 76.308 30.863 107.546 62.101 31.254 31.254 50.7 64.914 62.157 107.606 11.437 42.671 11.437 81.566 0 124.242-11.45 42.683-30.883 76.324-62.118 107.562z" style="fill:#fff;fill-opacity:1;fill-rule:evenodd;stroke:none" transform="matrix(1.25 0 0 -1.25 0 602.3)"/><path d="M402.582 402.594c-29.769 29.769-61.867 48.32-102.555 59.195-40.683 10.914-77.777 10.914-118.445.02-40.684-10.875-72.801-29.442-102.59-59.231-29.773-29.773-48.281-61.871-59.176-102.535-10.894-40.707-10.894-77.762-.003-118.465 10.898-40.668 29.425-72.785 59.195-102.554 29.793-29.789 61.89-48.34 102.574-59.215 40.668-10.895 77.762-10.895 118.449.019 40.684 10.875 72.762 29.407 102.535 59.176 29.789 29.793 48.356 61.906 59.227 102.59 10.898 40.668 10.898 77.762 0 118.43-10.871 40.683-29.422 72.781-59.211 102.57z" style="fill:#154889;fill-opacity:1;fill-rule:evenodd;stroke:none" transform="matrix(1.25 0 0 -1.25 0 602.3)"/><path d="m157.852 314.649.074-121.215 193.023 193.023 35.465-35.465-193.219-193.218 121.278-.075-44.692-44.691-156.832-.152 7.895 7.683-7.836-7.414.168 156.848 44.676 44.676z" style="fill:#fff;fill-opacity:1;fill-rule:nonzero;stroke:none" transform="matrix(1.25 0 0 -1.25 0 602.3)"/></svg>

<?xml version="1.0" encoding="UTF-8" standalone="no"?>
<svg xmlns:dc="http://purl.org/dc/elements/1.1/" xmlns:cc="http://creativecommons.org/ns#" xmlns:rdf="http://www.w3.org/1999/02/22-rdf-syntax-ns#" xmlns:svg="http://www.w3.org/2000/svg" xmlns="http://www.w3.org/2000/svg" viewBox="0 0 602.29999 602.29999" height="602.29999" width="602.29999" xml:space="preserve" version="1.1" id="svg8903"><metadata id="metadata8909"><rdf:RDF><cc:Work rdf:about=""><dc:format>image/svg+xml</dc:format><dc:type rdf:resource="http://purl.org/dc/dcmitype/StillImage"/><dc:title/></cc:Work></rdf:RDF></metadata><defs id="defs8907"/><g transform="matrix(1.25,0,0,-1.25,0,602.29999)" id="g8911"><g id="g8913"><path id="path8915" style="fill:#000000;fill-opacity:1;fill-rule:evenodd;stroke:none" d="M 70.793,410.777 C 39.516,379.5 20.043,345.781 8.59,303.051 -2.863,260.281 -2.863,221.336 8.59,178.567 20.039,135.836 39.531,102.098 70.828,70.801 c 31.277,-31.277 65,-50.754 107.75,-62.223 42.746,-11.433 81.715,-11.449 124.461,0.02 42.734,11.453 76.453,30.926 107.731,62.203 31.296,31.297 50.789,65.035 62.257,107.785 11.453,42.731 11.453,81.715 0,124.445 -11.468,42.746 -30.941,76.469 -62.222,107.746 -31.293,31.297 -65.035,50.79 -107.762,62.243 -42.75,11.468 -81.719,11.453 -124.469,0.019 C 135.828,461.567 102.09,442.078 70.793,410.777 Z m 0.281,-0.281 c 31.254,31.254 64.914,50.703 107.606,62.156 42.691,11.418 81.57,11.438 124.258,-0.019 42.675,-11.438 76.332,-30.883 107.585,-62.137 31.235,-31.238 50.668,-64.879 62.122,-107.566 11.433,-42.672 11.433,-81.567 -0.004,-124.238 C 461.188,136 441.738,102.34 410.484,71.086 379.25,39.852 345.605,20.422 302.938,8.985 260.246,-2.469 221.371,-2.449 178.68,8.965 135.988,20.418 102.348,39.848 71.109,71.082 39.855,102.336 20.41,135.996 8.977,178.672 c -11.438,42.707 -11.438,81.566 0,124.273 11.429,42.672 30.863,76.317 62.097,107.551 z"/><path id="path8917" style="fill:#ffffff;fill-opacity:1;fill-rule:evenodd;stroke:none" d="M 410.523,410.496 C 379.27,441.75 345.613,461.195 302.938,472.633 260.25,484.09 221.371,484.07 178.68,472.652 135.988,461.195 102.328,441.75 71.074,410.496 39.836,379.262 20.406,345.617 8.977,302.945 -2.461,260.238 -2.461,221.375 8.973,178.668 20.41,135.996 39.855,102.336 71.109,71.082 102.348,39.848 135.988,20.418 178.676,8.965 c 42.691,-11.418 81.57,-11.434 124.262,0.02 42.667,11.437 76.308,30.863 107.546,62.101 31.254,31.254 50.7,64.914 62.157,107.606 11.437,42.671 11.437,81.566 0,124.242 -11.45,42.683 -30.883,76.324 -62.118,107.562 z"/><path id="path8919" style="fill:#154889;fill-opacity:1;fill-rule:evenodd;stroke:none" d="m 402.582,402.594 c -29.769,29.769 -61.867,48.32 -102.555,59.195 -40.683,10.914 -77.777,10.914 -118.445,0.02 C 140.898,450.934 108.781,432.367 78.992,402.578 49.219,372.805 30.711,340.707 19.816,300.043 8.922,259.336 8.922,222.281 19.813,181.578 30.711,140.91 49.238,108.793 79.008,79.024 108.801,49.235 140.898,30.684 181.582,19.809 222.25,8.914 259.344,8.914 300.031,19.828 c 40.684,10.875 72.762,29.407 102.535,59.176 29.789,29.793 48.356,61.906 59.227,102.59 10.898,40.668 10.898,77.762 0,118.43 -10.871,40.683 -29.422,72.781 -59.211,102.57 z"/><path id="path8921" style="fill:#ffffff;fill-opacity:1;fill-rule:nonzero;stroke:none" d="m 157.852,314.649 0.074,-121.215 193.023,193.023 35.465,-35.465 -193.219,-193.218 121.278,-0.075 -44.692,-44.691 -156.832,-0.152 7.895,7.683 -7.836,-7.414 0.168,156.848 44.676,44.676 z"/></g></g><style xmlns="" id="autoconsent-prehide"/></svg>
